X:1
T: Miss Fyffe's Strathspey
C:William Marshall
R:Strathspey
Q: 128
K:Eb
M:4/4
L:1/16
|:e2|B3A GE3 B,E3 G,E3|DF3 F3G A4 A2c2|B3A GE3 B,E3 G,E3|Ge3 e3G B4 B2e2|
B3A GE3 B,E3 G,E3|DF3 F3G A4 A2c2|B3A GE3 B,E3 G,E3|Ge3 e3G B4 B2cd|
edcB Ge3 Be3 G3E|DF3 F3G A4 A2cf|eB3 g3e f3d e3E|GB3 e3G B4 B2cd|
edcB GE3 e3E GE3|DF3 F3G A4 A2c2|Begf edcB e3B ce3|B3G EFGA B4 B2:|
